X: 14
T: Good Natured Man, The
C: James Hill
Z: Fernando Durbán Galnares
S: https://thesession.org/tunes/312#setting47968
R: hornpipe
M: 4/4
L: 1/8
K: Gmaj
|:(3def|"G"g2bg d2gd|"G"BcdB G2AB|"C"cded cBAG|"D"FAEF D2(3def|
"G"g2bg d2gd|"G"BcdB G2AB|"C"cedc "D7"BAGF|"D"A2GF "G"G2:|
|:Bc|"G"dBdB g2gf|"C"ecec a2ag|"D"f2fd "G"g2ge|"D"fgaf d2fd|
"G"g2bg d2gd|"G"BcdB G2AB|"C"cedc "D7"BAGF|"D"A2GF "G"G2:|

